**kern	**silbe
*ICvox	*
=1	=1
*E-:	*
*M4/4	*
*clefG2	*
2r	.
8ddq	_
8ee-	Hoo,
8dd	_
8b-q	_
8cc	hoo
=2	=2
[4b-	_
16b-]	_
16a-	_
16g	_
16a-	_
2b-	...
=3	=3
2r	.
8r	.
8ddq	_
8ee-	Hoo,
8dd	_
8b-q	_
8cc	hoo
16dd-Q	_
16ccQ	_
=4	=4
1b-	...
=5	=5
*clefC3	*
4r	.
8r	.
8cq	_
8d	Last
8B-q	_
8c	dance,
4.B-	_
=6	=6
4r	_
8r	.
8cq	_
8d	last
8B-q	_
8c	chance
4B-	_
16c	for
[16B-	_
=7	=7
16B-]	_
32c	love
32d-	_
32c	_
[16.B-	_
4B-]	_
2r	.
=8	=8
2r	.
4r	.
16B-	Yes,
8c	it's
[16B-	my
=9	=9
16B-]	_
8cq	_
8.d	last
8B-q	_
8c	chance
[8B-	_
4B-]	_
8.r	.
16E-	for
=10	=10
8e-	ro-
[4.e-	-mance
8e-]	_
4r	.
16c	to-
[16B-	-night
=11	=11
16B-]	_
32c	_
32d-	_
32c	_
[16B-	_
[32c	_
16c]	_
16B-q	_
16c	_
[8B-	_
2B-]	_
=12	=12
2r	.
4r	.
8r	.
8e-	I
=13	=13
8e-	need
16e-	you
[16c	_
16c]	_
8.r	.
2r	.
=14	=14
8e-q	_
8f	by
16f	me,
16d	_
4r	_
4r	.
8.r	.
16f	be-
=15	=15
8g	-side
8f#q	_
[4.g	me
4g]	_
8fq	_
8g	to
32g-	guide
32f	_
[16e-	_
=16	=16
16e-]	_
32f	me
[32e-	_
8e-_	_
4e-]	_
4r	.
8.r	.
16e-	To
=17	=17
16e-q	_
16f	hold
8e-	_
16e-	me,
16c	_
8.r	_
4r	.
8.r	.
16e-	to
=18	=18
8e-q	_
8f	scold
8f	me,
4r	_
8r	.
8d	cuz
16e-	when
16f	I'm
8f#q	_
[8g	bad,
=19	=19
4g]	_
4g	I'm
8fq	_
6g	so,
8fq	_
6g	so
24f	bad!
24f#	_
24f	_
24e-	_
=20	=20
32f	_
32e-	_
32f	_
[32e-	_
8e-_	_
4e-_	_
4e-]	_
4r	_
=21	=21
2r	.
4r	.
8r	.
8e-	So
=22	=22
8.e-	let's
16B-q	_
[16c	dance
8c]	_
[8B-	_
8B-]	_
4r	.
8e-	The
=23	=23
8.e-	last
16e-q	_
[16f	dance
8f]	_
[8e-	_
8e-]	_
4r	.
8e-	L-
=24	=24
8.e-	-let's
16B-q	_
[16c	dance,
8c]	_
[8B-	_
8B-]	_
4r	_
8e-	the
=25	=25
8.e-	last
16e-q	_
[16f	dance!
8f]	_
[8e-	_
8e-]	_
4r	_
8e-	L-
=26	=26
8.e-	-let's
16B-q	_
[16c	dance
8c]	_
[8B-	_
8B-]	_
4r	.
8e-	the
=27	=27
8.e-	last
16e-q	_
[16f	dance,
8f]	_
[8e-	_
8e-]	_
8r	_
8f	to
8e-	_
=28	=28
8fq	_
[1g	night!
=29	=29
4.g]	_
8r	_
2r	.
=30	=30
8.d	Last
16B-q	_
[16c	dance,
8c]	_
[8B-	_
8B-]	_
8r	_
4r	.
=31	=31
8.d	last
16B-q	_
[16c	chance,
8c]	_
[8B-	_
4B-]	_
8c	for
[8B-	_
=32	=32
8B-]	_
16c	love
16d-	_
16c	_
[8.B-	_
4.B-]	_
8r	.
=33	=33
2r	.
6B-	Yes,
6c	it's
6B-	my
=34	=34
8cq	_
8.d	last
16B-q	_
[16c	chance
8c]	_
[8B-	_
8B-]	_
4r	.
8E-	for
=35	=35
8.e-	ro-
[16e-	-mance
4e-_	_
4e-]	_
8e-q	_
8c	to
[8B-	_
=36	=36
8B-]	_
16c	night
16d-	_
16c	_
8B-	_
16c	_
8cq	_
16c	_
[8.B-	_
4B-]	_
=37	=37
4r	.
4g	Oh,
8a-q	_
4b-	oh,
8fq	_
8g-	I
[8f	_
=38	=38
8f]	_
8e-q	_
8f	need
8e-	_
8e-	you,
8c	_
4r	_
8e-q	_
[8f	by
=39	=39
4f]	_
8f	me,
8d	_
4r	_
8f	be-
8fq	_
[8g	-side
=40	=40
8g]	_
[4.g	me
8g]	_
8b-	_
8fq	_
8g-	to
8f	guide
=41	=41
8e-	_
8e-	me!
4r	_
4r	.
16r	.
16e-	To
8e-q	_
[8f	hold
=42	=42
16f]	_
16e-	_
16e-	me,
16r	_
4r	.
4r	.
8e-	to
8e-q	_
[8f	scold
=43	=43
4f]	_
4f	me,
8d	cuz
8e-	when
8f	I'm
8fq	_
[8g	bad
=44	=44
4g]	_
4g	I'm
8g	so,
4g	so
24g-	bad!
24f	_
24e-	_
=45	=45
16.f	_
32e-	_
16f	_
[16e-	_
4e-_	_
4e-]	_
4e-	So
=46	=46
8.g	let's
[16g	dance
4g]	_
4r	.
8r	.
8e-	the
=47	=47
8.e-	last
16e-q	_
[16f	dance,
8f]	_
[8e-	_
8e-]	_
4r	_
8e-	l-
=48	=48
8.g	-let's
[16g	dance,
4g]	_
4r	_
8r	.
8e-	the
=49	=49
8.e-	last
16e-q	_
[16f	dance,
8f]	_
[8e-	_
8e-]	_
4r	_
8e-	l-
=50	=50
*F:	*
8.a	-let's
[16a	dance,
4a]	_
4r	_
8r	.
8f	the
=51	=51
8.f	last
16fq	_
[16g	dance
8g]	_
[8f	_
4f]	_
8g	to
8f	_
=52	=52
8gq	_
[1a	night!
=53	=53
1a]	_
=54	=54
8gq	_
1b-	_
=55	=55
*clefG2	*
[1ff	Ahh
=56	=56
1ff_	_
=57	=57
8ff]	_
8dd	hoo,
8cc	_
8dd	_
8ccq	_
8dd	hoo!
4cc	_
8dd	_
=58	=58
4r	_
16r	.
8dd	Hoo
16ccq	_
[16dd	hoo!
16dd]	_
[8.cc	_
16cc]	_
8dd	_
16r	_
=59	=59
4r	.
8r	.
8ccq	_
[8dd	Yeah
8dd]	_
4cc	_
8dd	yee
=60	=60
4a	yee
8r	...
8ccq	_
8dd	Hoo,
[4cc	_
16cc]	_
16b-	_
8a	_
=61	=61
4r	_
16r	.
8dd	hoo
16ccq	_
[16dd	hoo
16dd]	_
[8.cc	_
16cc]	_
8dd	_
[16cc	_
=62	=62
16cc]	_
16ddq	_
8ee-	hoo
[16dd	_
16dd]	_
16ccq	_
8dd	hoo
16ccq	_
[16dd	hoo!
16dd]	_
[8.cc	_
8.cc]	_
16r	_
=63	=63
4r	.
4gq	_
4a	Oh,
4a	_
4aq	_
4g	I
=64	=64
8f	n-
8g	-need
8f	_
[8f	you,
4.f]	_
8fq	_
[8g	by
=65	=65
4g]	_
8g	me,
8e	_
4r	_
8.r	.
16gq	B'side
[16a	_
=66	=66
8a]	_
[4.a	me,
4a]	_
8gq	_
8a	to
8g	guide
=67	=67
8f	_
8fq	_
8g	me!
8f	_
8fq	_
8g	_
4f	_
8f	To
8a-q	_
[8a	hold
=68	=68
8a]	_
8g	_
8g	me,
[8f	_
8f]	_
8r	_
8f	to
8gq	_
[8a	scold
=69	=69
8a]	_
8g	_
8g	me,
8r	_
8e	cuz
8f	when
8g	I'm
8gq	_
[8a	bad,
=70	=70
4a]	_
4a	I'm
4cc#	so,
8gq	_
8a	so
8g	_
=71	=71
8fq	_
16g	_
16a-	_
16g	_
[16f	_
8f]	_
[8f	bad!
4f]	_
8f	So
8d	_
=72	=72
8r	.
16a-	come
[16a	on,
8a]	_
[8f	ba
8f]	_
8d	by!
4r	_
=73	=73
8r	.
[8f	Dance
16f]	_
8f	that
[16f	dance!
8f]	_
8r	_
4r	.
=74	=74
8r	.
16a-	Come
[16a	on,
8a]	_
[8f	ba
8f]	_
8d	by!
4r	_
=75	=75
8r	.
8fq	_
[8g	Dance
16g]	_
8fq	_
8.g	that
8.f	dance!
16d	_
4r	_
=76	=76
8r	.
8a-	Come
[8a	on,
[8f	ba
8f]	_
8d	by!
4r	_
=77	=77
8r	.
8g	Let's
8b-	_
8a-	dance
4f	_
8g	to
8f	_
=78	=78
[1a	night!
=79	=79
1a_	_
=80	=80
1a]	_
=81	=81
4r	_
8r	.
16g	Yeah!
16a-	_
8g	_
8fq	_
8g	_
16a-	_
16g	_
[8f	_
=82	=82
1f]	_
=83	=83
1r	.
*-	*-
!!!ENC: Nathaniel Condit-Schultz